X: 1
T:The Headless Turkey
R:Jig
S: The Boys in the Gap (The Swallow) - Emily Hawkes (18/Oct/2001)
M: 6/8
L: 1/4
K: G
|: E/A/G/ A B/ | c/A/B/ c/A/G/ | E E/G/F/ G/ | E/G/E/ G/F/D/ |
   E/A/G/ A B/ | c/A/B/ c/d/e/ | g/g/g/ e/g/e/ | d/B/G/ A3/2 :|
|: a/e/a/ a/e/a/ | g/d/g/ g/d/g/ | a a/a/e/ f/ | g/f/e/ d/e/f/ |
   g/g/g/ f/g/f/ | e/d/B/ G/B/d/ | g g/e/g/ e/ | d/B/G/ A3/2 :|
